; generated by Slic3r 1.2.9 on 2017-03-03 at 21:56:43

; external perimeters extrusion width = 0.40mm
; perimeters extrusion width = 0.56mm
; infill extrusion width = 0.56mm
; solid infill extrusion width = 0.56mm
; top infill extrusion width = 0.56mm

M107
M190 S95 ; set bed temperature
M104 S245 ; set temperature
G28 ; home all axes
G1 Z5 F5000 ; lift nozzle

M109 S245 ; wait for temperature to be reached
G21 ; set units to millimeters
G90 ; use absolute coordinates
M82 ; use absolute distances for extrusion
G92 E0
G1 Z0.200 F6000.000
G1 E-1.00000 F2400.00000
G92 E0
G1 X71.581 Y73.510 F6000.000
G1 E1.00000 F2400.00000
G1 X73.358 Y71.867 E1.08646 F1800.000
G1 X75.572 Y70.888 E1.17292
G1 X77.406 Y70.656 E1.23899
G1 X102.406 Y70.656 E2.13214
G1 X104.794 Y71.053 E2.21860
G1 X106.923 Y72.202 E2.30506 F1800.000
G1 X108.567 Y73.979 E2.39152
G1 X109.546 Y76.193 E2.47798
G1 X109.777 Y77.928 E2.54054
G1 X109.964 Y91.874 E3.03880
G1 X109.965 Y101.973 E3.39960
G1 X109.568 Y104.360 E3.48606
G1 X108.419 Y106.490 E3.57252
G1 X106.642 Y108.133 E3.65898
G1 X104.428 Y109.112 E3.74544
G1 X102.594 Y109.344 E3.81151
G1 X77.594 Y109.344 E4.70466
G1 X75.206 Y108.947 E4.79112
G1 X73.077 Y107.798 E4.87758
G1 X71.433 Y106.021 E4.96404
G1 X70.454 Y103.807 E5.05050
G1 X70.223 Y102.072 E5.11306
G1 X70.036 Y88.126 E5.61131
G1 X70.035 Y78.027 E5.97211
G1 X70.432 Y75.640 E6.05858
G1 X71.553 Y73.563 E6.14289
G1 X71.996 Y73.743 F6000.000
G1 X72.035 Y73.674 E6.14572 F1800.000
G1 X73.798 Y72.130 E6.22944
G1 X75.975 Y71.263 E6.31315
G1 X77.406 Y71.113 E6.36457
G1 X102.406 Y71.113 E7.25772
G1 X104.716 Y71.510 E7.34144
G1 X106.760 Y72.656 E7.42516 F1800.000
G1 X108.304 Y74.419 E7.50888
G1 X109.171 Y76.596 E7.59260
G1 X109.320 Y77.934 E7.64071
G1 X109.507 Y91.880 E8.13897
G1 X109.508 Y101.973 E8.49955
G1 X109.111 Y104.282 E8.58327
G1 X107.965 Y106.326 E8.66698
G1 X106.202 Y107.870 E8.75070
G1 X104.025 Y108.737 E8.83442
G1 X102.594 Y108.887 E8.88584
G1 X77.594 Y108.887 E9.77899
G1 X75.284 Y108.490 E9.86271
G1 X73.240 Y107.344 E9.94643
G1 X71.696 Y105.581 E10.03014
G1 X70.829 Y103.404 E10.11386
G1 X70.680 Y102.066 E10.16198
G1 X70.493 Y88.120 E10.66023
G1 X70.492 Y78.027 E11.02081
G1 X70.889 Y75.718 E11.10453
G1 X71.967 Y73.795 E11.18328
G1 X72.407 Y73.982 F6000.000
G1 X72.488 Y73.843 E11.18903 F1800.000
G1 X74.235 Y72.403 E11.26992
G1 X77.406 Y71.570 E11.38707
G1 X102.406 Y71.570 E12.28022
G1 X104.635 Y71.967 E12.36110
G1 X106.590 Y73.109 E12.44198 F1800.000
G1 X108.031 Y74.856 E12.52287
G1 X108.863 Y77.941 E12.63702
G1 X109.050 Y91.886 E13.13527
G1 X109.051 Y101.973 E13.49564
G1 X108.654 Y104.202 E13.57652
G1 X107.512 Y106.157 E13.65740
G1 X105.765 Y107.597 E13.73828
G1 X102.594 Y108.430 E13.85544
G1 X77.594 Y108.430 E14.74859
G1 X75.365 Y108.033 E14.82947
G1 X73.410 Y106.891 E14.91035
G1 X71.969 Y105.144 E14.99124
G1 X71.137 Y102.059 E15.10539
G1 X70.950 Y88.114 E15.60364
G1 X70.949 Y78.027 E15.96400
G1 X71.346 Y75.798 E16.04489
G1 X72.377 Y74.034 E16.11788
G1 E15.11788 F2400.00000
G92 E0
G1 X73.859 Y75.434 F6000.000
G1 E1.00000 F2400.00000
G1 X75.608 Y73.685 E1.08837 F1800.000
G1 X104.205 Y73.685 E2.11003
G1 X106.748 Y76.229 E2.23855
G1 X106.748 Y89.888 E2.72655 F1800.000
G1 X106.818 Y90.056 E2.73304
G1 X106.936 Y90.174 E2.73900
G1 X106.936 Y103.771 E3.22477
G1 X104.392 Y106.315 E3.35329
G1 X75.795 Y106.315 E4.37495
G1 X73.251 Y103.771 E4.50347
G1 X73.251 Y90.112 E4.99146
G1 X73.182 Y89.944 E4.99796
G1 X73.064 Y89.826 E5.00392
G1 X73.064 Y76.229 E5.48969
G1 X73.816 Y75.477 E5.52769
G1 X74.182 Y75.757 F6000.000
G1 X75.797 Y74.142 E5.60930 F1800.000
G1 X104.016 Y74.142 E6.61744
G1 X106.291 Y76.418 E6.73242 F1800.000
G1 X106.291 Y89.637 E7.20467
G1 X106.211 Y89.717 E7.20873
G1 X106.211 Y90.096 E7.22225
G1 X106.479 Y90.363 E7.23579
G1 X106.479 Y103.582 E7.70803
G1 X104.203 Y105.858 E7.82302
G1 X75.984 Y105.858 E8.83115
G1 X73.709 Y103.582 E8.94614
G1 X73.709 Y90.363 E9.41839
G1 X73.789 Y90.283 E9.42245
G1 X73.789 Y89.904 E9.43597
G1 X73.521 Y89.637 E9.44950
G1 X73.521 Y76.418 E9.92175
G1 X74.139 Y75.800 E9.95299
G1 E8.95299 F2400.00000
G92 E0
G1 X74.435 Y89.904 F6000.000
G1 E1.00000 F2400.00000
G1 X73.978 Y89.447 E1.02310 F1800.000
G1 X73.978 Y76.607 E1.48182
G1 X75.986 Y74.599 E1.58327
G1 X103.826 Y74.599 E2.57788
G1 X105.834 Y76.607 E2.67934
G1 X105.834 Y89.447 E3.13806
G1 X105.565 Y89.717 E3.15168
G1 X105.565 Y90.096 E3.16521
G1 X106.022 Y90.553 E3.18831
G1 X106.022 Y103.393 E3.64703
G1 X104.014 Y105.401 E3.74849
G1 X76.174 Y105.401 E4.74309
G1 X74.166 Y103.393 E4.84455
G1 X74.166 Y90.553 E5.30327
G1 X74.435 Y90.283 E5.31689
G1 X74.435 Y89.964 E5.32828
G1 X75.082 Y89.904 F6000.000
G1 X74.435 Y89.258 E5.36094 F1800.000
G1 X74.435 Y76.797 E5.80613
G1 X76.176 Y75.056 E5.89406
G1 X103.637 Y75.056 E6.87514
G1 X105.377 Y76.797 E6.96307
G1 X105.377 Y89.258 E7.40826
G1 X104.918 Y89.717 E7.43145
G1 X104.918 Y90.096 E7.44498
G1 X105.565 Y90.742 E7.47764
G1 X105.565 Y103.203 E7.92283
G1 X103.824 Y104.944 E8.01076
G1 X76.363 Y104.944 E8.99184
G1 X74.623 Y103.203 E9.07978
G1 X74.623 Y90.742 E9.52497
G1 X75.082 Y90.283 E9.54816
G1 X75.082 Y89.964 E9.55954
G1 X75.405 Y89.581 F6000.000
G1 X74.892 Y89.069 E9.58544 F1800.000
G1 X74.892 Y76.986 E10.01710
G1 X76.365 Y75.513 E10.09150
G1 X103.448 Y75.513 E11.05906
G1 X104.920 Y76.986 E11.13346
G1 X104.920 Y89.069 E11.56512 F1800.000
G1 X104.272 Y89.717 E11.59788
G1 X104.272 Y90.096 E11.61140
G1 X105.108 Y90.931 E11.65363
G1 X105.108 Y103.014 E12.08530
G1 X103.635 Y104.487 E12.15970
G1 X76.552 Y104.487 E13.12725
G1 X75.080 Y103.014 E13.20165
G1 X75.080 Y90.931 E13.63332
G1 X75.728 Y90.283 E13.66607
G1 X75.728 Y89.904 E13.67960
G1 X75.447 Y89.624 E13.69379
G1 X75.728 Y89.258 F6000.000
G1 X75.349 Y88.879 E13.71292 F1800.000
G1 X75.349 Y77.175 E14.13105
G1 X76.554 Y75.970 E14.19193
G1 X103.258 Y75.970 E15.14595
G1 X104.463 Y77.175 E15.20683 F1800.000
G1 X104.463 Y88.879 E15.62496
G1 X103.625 Y89.717 E15.66729
G1 X103.625 Y90.096 E15.68081
G1 X104.651 Y91.121 E15.73261
G1 X104.651 Y102.825 E16.15074
G1 X103.446 Y104.030 E16.21162
G1 X76.742 Y104.030 E17.16564
G1 X75.537 Y102.825 E17.22652
G1 X75.537 Y91.121 E17.64465
G1 X76.375 Y90.283 E17.68697
G1 X76.375 Y89.904 E17.70050
G1 X75.771 Y89.300 E17.73102
G1 X77.113 Y90.191 F6000.000
G1 X76.879 Y89.627 E17.75284 F1800.000
G1 X76.744 Y89.627 E17.75767
G1 X75.806 Y88.690 E17.80502
G1 X75.806 Y77.365 E18.20962
G1 X76.744 Y76.428 E18.25697
G1 X103.069 Y76.428 E19.19747
G1 X104.006 Y77.365 E19.24481
G1 X104.006 Y88.690 E19.64942
G1 X102.887 Y89.809 E19.70594
G1 X103.121 Y90.373 E19.72776
G1 X103.256 Y90.373 E19.73259
G1 X104.194 Y91.310 E19.77994
G1 X104.194 Y102.635 E20.18455
G1 X103.256 Y103.572 E20.23189
G1 X76.931 Y103.572 E21.17239
G1 X75.994 Y102.635 E21.21974
G1 X75.994 Y91.310 E21.62435
G1 X77.070 Y90.234 E21.67872
G1 X77.113 Y89.170 F6000.000
G1 X76.933 Y89.170 E21.68514 F1800.000
G1 X76.264 Y88.501 E21.71896
G1 X76.264 Y77.554 E22.11004
G1 X76.933 Y76.885 E22.14386
G1 X102.880 Y76.885 E23.07082
G1 X103.549 Y77.554 E23.10464 F1800.000
G1 X103.549 Y88.501 E23.49572
G1 X102.880 Y89.170 E23.52954
G1 X77.173 Y89.170 E24.44795
G1 X77.122 Y88.713 F6000.000
G1 X76.721 Y88.311 E24.46824 F1800.000
G1 X76.721 Y77.743 E24.84579
G1 X77.122 Y77.342 E24.86608
G1 X102.690 Y77.342 E25.77952
G1 X103.092 Y77.743 E25.79982
G1 X103.092 Y88.311 E26.17737 F1800.000
G1 X102.690 Y88.713 E26.19766
G1 X77.182 Y88.713 E27.10896
G1 X77.178 Y88.122 F6000.000
G1 X77.178 Y77.933 E27.47298 F1800.000
G1 X77.312 Y77.799 E27.47974
G1 X102.501 Y77.799 E28.37966
G1 X102.635 Y77.933 E28.38642
G1 X102.635 Y88.122 E28.75044
G1 X102.501 Y88.256 E28.75721
G1 X77.312 Y88.256 E29.65712
G1 X77.220 Y88.164 E29.66174
G1 E28.66174 F2400.00000
G92 E0
G1 X77.178 Y90.830 F6000.000
G1 E1.00000 F2400.00000
G1 X103.067 Y90.830 E1.92492 F1800.000
G1 X103.736 Y91.499 E1.95874 F1800.000
G1 X103.736 Y102.446 E2.34982
G1 X103.067 Y103.115 E2.38364
G1 X77.120 Y103.115 E3.31061
G1 X76.451 Y102.446 E3.34443
G1 X76.451 Y91.499 E3.73551
G1 X77.119 Y90.832 E3.76923
G1 X77.310 Y91.287 F6000.000
G1 X102.878 Y91.287 E4.68267 F1800.000
G1 X103.279 Y91.689 E4.70296
G1 X103.279 Y102.257 E5.08051 F1800.000
G1 X102.878 Y102.658 E5.10081
G1 X77.310 Y102.658 E6.01425
G1 X76.908 Y102.257 E6.03454
G1 X76.908 Y91.689 E6.41209
G1 X77.267 Y91.329 E6.43024
G1 X77.499 Y91.744 F6000.000
G1 X102.688 Y91.744 E7.33015 F1800.000
G1 X102.822 Y91.878 E7.33691
G1 X102.822 Y102.067 E7.70094
G1 X102.688 Y102.201 E7.70770
G1 X77.499 Y102.201 E8.60761
G1 X77.365 Y102.067 E8.61438
G1 X77.365 Y91.878 E8.97840
G1 X77.457 Y91.787 E8.98302
G1 E7.98302 F2400.00000
G92 E0
G1 X102.344 Y101.723 F6000.000
G1 E1.00000 F2400.00000
G1 X77.844 Y101.723 E1.87529 F1800.000
G1 X77.844 Y92.223 E2.21468
G1 X102.344 Y92.223 E3.08997
G1 X102.344 Y101.663 E3.42722
G1 X101.997 Y101.523 F6000.000
G1 X101.887 Y101.266 F6000.000
G1 X78.301 Y101.266 E4.26985 F1800.000
G1 X78.301 Y92.680 E4.57658
G1 X101.887 Y92.680 E5.41921
G1 X101.887 Y101.206 E5.72381
G1 X101.430 Y100.809 F6000.000
G1 X78.758 Y100.809 E6.53377 F1800.000
G1 X78.758 Y93.137 E6.80785
G1 X101.430 Y93.137 E7.61782
G1 X101.430 Y100.749 E7.88975
G1 X91.767 Y97.489 F6000.000
G1 X91.671 Y97.732 E7.89910 F1800.000
G1 X91.540 Y97.959 E7.90845
G1 X91.377 Y98.163 E7.91780
G1 X91.185 Y98.341 E7.92715
G1 X90.969 Y98.489 E7.93649
G1 X90.733 Y98.602 E7.94584
G1 X90.483 Y98.679 E7.95519
G1 X90.225 Y98.718 E7.96454
G1 X89.963 Y98.718 E7.97389
G1 X89.704 Y98.679 E7.98323
G1 X89.459 Y98.604 E7.99240
G1 X89.219 Y98.489 E8.00191
G1 X89.002 Y98.341 E8.01128
G1 X88.810 Y98.163 E8.02062
G1 X88.647 Y97.959 E8.02997
G1 X88.516 Y97.732 E8.03932
G1 X88.421 Y97.489 E8.04867
G1 X88.363 Y97.234 E8.05802
G1 X88.343 Y96.978 E8.06719
G1 X88.363 Y96.712 E8.07670
G1 X88.421 Y96.457 E8.08606
G1 X88.516 Y96.213 E8.09541
G1 X88.645 Y95.991 E8.10458
G1 X88.810 Y95.782 E8.11409
G1 X89.002 Y95.604 E8.12345
G1 X89.218 Y95.457 E8.13280
G1 X89.454 Y95.343 E8.14215
G1 X89.704 Y95.266 E8.15149
G1 X89.963 Y95.227 E8.16084
G1 X90.225 Y95.227 E8.17019 F1800.000
G1 X90.483 Y95.266 E8.17954
G1 X90.733 Y95.343 E8.18889
G1 X90.969 Y95.457 E8.19823
G1 X91.185 Y95.604 E8.20758
G1 X91.377 Y95.782 E8.21693
G1 X91.540 Y95.986 E8.22628
G1 X91.671 Y96.213 E8.23563
G1 X91.767 Y96.457 E8.24497
G1 X91.825 Y96.712 E8.25432
G1 X91.844 Y96.973 E8.26367
G1 X91.825 Y97.234 E8.27302
G1 X91.780 Y97.430 E8.28022
G1 X91.940 Y97.685 F6000.000
G1 X92.212 Y97.590 F6000.000
G1 X92.084 Y97.931 E8.29323 F1800.000
G1 X91.919 Y98.217 E8.30502
G1 X91.713 Y98.475 E8.31682
G1 X91.471 Y98.700 E8.32862
G1 X91.198 Y98.886 E8.34041
G1 X90.901 Y99.029 E8.35221
G1 X90.585 Y99.126 E8.36400
G1 X90.259 Y99.176 E8.37580
G1 X89.929 Y99.176 E8.38759
G1 X89.602 Y99.126 E8.39939
G1 X89.292 Y99.031 E8.41098
G1 X88.990 Y98.886 E8.42294
G1 X88.716 Y98.700 E8.43477
G1 X88.474 Y98.475 E8.44657
G1 X88.269 Y98.217 E8.45836
G1 X88.103 Y97.931 E8.47016
G1 X87.983 Y97.624 E8.48196
G1 X87.909 Y97.302 E8.49375
G1 X87.885 Y96.978 E8.50534
G1 X87.909 Y96.644 E8.51730
G1 X87.983 Y96.322 E8.52914
G1 X88.103 Y96.014 E8.54093
G1 X88.266 Y95.733 E8.55252
G1 X88.474 Y95.471 E8.56448
G1 X88.716 Y95.246 E8.57632
G1 X88.989 Y95.060 E8.58811
G1 X89.287 Y94.916 E8.59991
G1 X89.602 Y94.819 E8.61170
G1 X89.929 Y94.770 E8.62350
G1 X90.259 Y94.770 E8.63529 F1800.000
G1 X90.585 Y94.819 E8.64709
G1 X90.901 Y94.916 E8.65888
G1 X91.198 Y95.060 E8.67068
G1 X91.471 Y95.246 E8.68248
G1 X91.713 Y95.470 E8.69427
G1 X91.919 Y95.728 E8.70607
G1 X92.084 Y96.014 E8.71786
G1 X92.205 Y96.322 E8.72966
G1 X92.278 Y96.643 E8.74145
G1 X92.303 Y96.973 E8.75325
G1 X92.278 Y97.302 E8.76504
G1 X92.226 Y97.532 E8.77347
G1 X92.658 Y97.692 F6000.000
G1 X92.497 Y98.130 E8.79014 F1800.000
G1 X92.298 Y98.475 E8.80438
G1 X92.049 Y98.787 E8.81863
G1 X91.757 Y99.058 E8.83287
G1 X91.427 Y99.283 E8.84711
G1 X91.068 Y99.456 E8.86136
G1 X90.687 Y99.573 E8.87560
G1 X90.293 Y99.633 E8.88984
G1 X89.894 Y99.633 E8.90408
G1 X89.500 Y99.573 E8.91833
G1 X89.125 Y99.458 E8.93234
G1 X88.761 Y99.284 E8.94675
G1 X88.431 Y99.058 E8.96105
G1 X88.138 Y98.787 E8.97530
G1 X87.890 Y98.475 E8.98954
G1 X87.690 Y98.130 E9.00378
G1 X87.545 Y97.759 E9.01803
G1 X87.456 Y97.370 E9.03227
G1 X87.427 Y96.979 E9.04628
G1 X87.456 Y96.577 E9.06069
G1 X87.545 Y96.186 E9.07500
G1 X87.690 Y95.815 E9.08924
G1 X87.887 Y95.476 E9.10325
G1 X88.137 Y95.160 E9.11766
G1 X88.431 Y94.887 E9.13197
G1 X88.760 Y94.663 E9.14621
G1 X89.119 Y94.490 E9.16045
G1 X89.500 Y94.372 E9.17470
G1 X89.894 Y94.313 E9.18894
G1 X90.293 Y94.313 E9.20318 F1800.000
G1 X90.687 Y94.372 E9.21742
G1 X91.068 Y94.490 E9.23167
G1 X91.427 Y94.663 E9.24591
G1 X91.757 Y94.887 E9.26015
G1 X92.049 Y95.158 E9.27440
G1 X92.298 Y95.470 E9.28864
G1 X92.497 Y95.815 E9.30288
G1 X92.643 Y96.186 E9.31713
G1 X92.731 Y96.575 E9.33137
G1 X92.761 Y96.973 E9.34561
G1 X92.731 Y97.370 E9.35985
G1 X92.671 Y97.634 E9.36951
G1 X91.285 Y94.238 F6000.000
G1 X90.455 Y93.408 E9.41193 F1800.000
G1 X89.801 Y93.408 E9.43559
G1 X90.437 Y94.044 E9.46810
G1 X89.804 Y94.065 E9.49100
G1 X89.147 Y93.408 E9.52460
G1 X88.492 Y93.408 E9.54826
G1 X89.269 Y94.185 E9.58796
G1 X88.805 Y94.376 E9.60609
G1 X87.838 Y93.408 E9.65555
G1 X87.184 Y93.408 E9.67921
G1 X88.400 Y94.625 E9.74143
G1 X88.048 Y94.927 E9.75821
G1 X86.529 Y93.408 E9.83586
G1 X85.875 Y93.408 E9.85952
G1 X87.746 Y95.279 E9.95520
G1 X87.495 Y95.682 E9.97237
G1 X85.221 Y93.408 E10.08867
G1 X84.567 Y93.408 E10.11233
G1 X87.301 Y96.143 E10.25218
G1 X87.183 Y96.679 E10.27203
G1 X83.912 Y93.408 E10.43929
G1 X83.258 Y93.408 E10.46296
G1 X87.173 Y97.323 E10.66317
G1 X87.372 Y98.177 E10.69485
G1 X82.604 Y93.408 E10.93871
G1 X81.949 Y93.408 E10.96237
G1 X89.078 Y100.537 E11.32693
G1 X88.903 Y99.708 E11.35759
G1 X89.732 Y100.537 E11.40001
G1 X90.387 Y100.537 E11.42367
G1 X89.751 Y99.901 E11.45618
G1 X90.384 Y99.880 E11.47909
G1 X91.041 Y100.537 E11.51268
G1 X91.695 Y100.537 E11.53635
G1 X90.919 Y99.761 E11.57605
G1 X91.382 Y99.570 E11.59418
G1 X92.349 Y100.537 E11.64364
G1 X93.004 Y100.537 E11.66730
G1 X91.787 Y99.320 E11.72952
G1 X92.140 Y99.019 E11.74630
G1 X93.658 Y100.537 E11.82395
G1 X94.312 Y100.537 E11.84761
G1 X92.442 Y98.667 E11.94326
G1 X92.693 Y98.263 E11.96044
G1 X94.967 Y100.537 E12.07673
G1 X95.621 Y100.537 E12.10039
G1 X92.886 Y97.802 E12.24024
G1 X93.004 Y97.266 E12.26009
G1 X96.275 Y100.537 E12.42737
G1 X96.930 Y100.537 E12.45103
G1 X93.015 Y96.622 E12.65124
G1 X92.816 Y95.769 E12.68292
G1 X97.584 Y100.537 E12.92677
G1 X98.238 Y100.537 E12.95043
G1 X91.110 Y93.408 E13.31500
G1 X91.764 Y93.408 E13.33866
G1 X98.892 Y100.537 E13.70323
G1 X99.547 Y100.537 E13.72689
G1 X92.418 Y93.408 E14.09146
G1 X93.072 Y93.408 E14.11512
G1 X100.201 Y100.537 E14.47968
G1 X100.855 Y100.537 E14.50335
G1 X93.727 Y93.408 E14.86791
G1 X94.381 Y93.408 E14.89157
G1 X101.158 Y100.185 E15.23816
G1 X101.158 Y99.531 E15.26182
G1 X95.035 Y93.408 E15.57494
G1 X95.690 Y93.408 E15.59860
G1 X101.158 Y98.877 E15.87826
G1 X101.158 Y98.222 E15.90192
G1 X96.344 Y93.408 E16.14812
G1 X96.998 Y93.408 E16.17178
G1 X101.158 Y97.568 E16.38452
G1 X101.158 Y96.914 E16.40818
G1 X97.653 Y93.408 E16.58745
G1 X98.307 Y93.408 E16.61111
G1 X101.158 Y96.260 E16.75692
G1 X101.158 Y95.605 E16.78058
G1 X98.961 Y93.408 E16.89293
G1 X99.616 Y93.408 E16.91659
G1 X101.158 Y94.951 E16.99548
G1 X101.158 Y94.297 E17.01914
G1 X100.270 Y93.408 E17.06457
G1 X100.924 Y93.408 E17.08823
G1 X101.158 Y93.642 E17.10019
G1 X88.424 Y100.537 F6000.000
G1 X81.295 Y93.408 E17.46476 F1800.000
G1 X80.641 Y93.408 E17.48842
G1 X87.769 Y100.537 E17.85299
G1 X87.115 Y100.537 E17.87665
G1 X79.986 Y93.408 E18.24121
G1 X79.332 Y93.408 E18.26488
G1 X86.461 Y100.537 E18.62944
G1 X85.806 Y100.537 E18.65310
G1 X79.029 Y93.760 E18.99969
G1 X79.029 Y94.414 E19.02335
G1 X85.152 Y100.537 E19.33647
G1 X84.498 Y100.537 E19.36013
G1 X79.029 Y95.069 E19.63979
G1 X79.029 Y95.723 E19.66345
G1 X83.843 Y100.537 E19.90964
G1 X83.189 Y100.537 E19.93330
G1 X79.029 Y96.377 E20.14604
G1 X79.029 Y97.032 E20.16970
G1 X82.535 Y100.537 E20.34897
G1 X81.881 Y100.537 E20.37263
G1 X79.029 Y97.686 E20.51844
