; generated by Slic3r 1.2.9 on 2017-02-09 at 21:26:00

; external perimeters extrusion width = 0.40mm
; perimeters extrusion width = 0.56mm
; infill extrusion width = 0.56mm
; solid infill extrusion width = 0.56mm
; top infill extrusion width = 0.56mm

M107
M190 S95 ; set bed temperature
M104 S245 ; set temperature
G28 ; home all axes
G1 Z5 F5000 ; lift nozzle

M109 S245 ; wait for temperature to be reached
G21 ; set units to millimeters
G90 ; use absolute coordinates
M82 ; use absolute distances for extrusion
G92 E0
G1 Z0.200 F6000.000
G1 E-1.00000 F2400.00000
G92 E0
G1 X61.753 Y55.915 F6000.000
G1 E1.00000 F2400.00000
G1 X63.545 Y54.288 E1.08646 F1800.000
G1 X65.767 Y53.329 E1.17292
G1 X67.443 Y53.114 E1.23331
G1 X96.799 Y52.742 E2.28215
G1 X99.892 Y52.741 E2.39267
G1 X102.280 Y53.139 E2.47913
G1 X104.410 Y54.288 E2.56559 F1800.000
G1 X105.789 Y55.690 E2.63587
G1 X114.789 Y67.690 E3.17176
G1 X116.040 Y70.312 E3.27556
G1 X119.037 Y82.209 E3.71385
G1 X119.214 Y83.041 E3.74423
G1 X119.333 Y83.965 E3.77754
G1 X119.808 Y94.241 E4.14505
G1 X120.003 Y104.427 E4.50901
G1 X119.987 Y105.164 E4.53534
G1 X119.543 Y113.897 E4.84776
G1 X119.437 Y114.923 E4.88459
G1 X119.310 Y115.608 E4.90949
G1 X119.141 Y116.284 E4.93439
G1 X118.928 Y116.948 E4.95928
G1 X118.673 Y117.596 E4.98418
G1 X118.377 Y118.227 E5.00908
G1 X118.041 Y118.838 E5.03397
G1 X117.667 Y119.426 E5.05887
G1 X117.256 Y119.988 E5.08377
G1 X116.810 Y120.524 E5.10866
G1 X116.330 Y121.029 E5.13356
G1 X115.819 Y121.503 E5.15845
G1 X115.279 Y121.943 E5.18335
G1 X114.711 Y122.348 E5.20825
G1 X114.119 Y122.715 E5.23315
G1 X113.505 Y123.044 E5.25804
G1 X112.870 Y123.332 E5.28294
G1 X112.219 Y123.579 E5.30784
G1 X111.239 Y123.866 E5.34430
G1 X110.224 Y124.060 E5.38121
G1 X87.423 Y127.114 E6.20309
G1 X86.549 Y127.190 E6.23442
G1 X86.029 Y127.209 E6.25303
G1 X85.098 Y127.191 E6.28630
G1 X84.357 Y127.131 E6.31283
G1 X83.289 Y126.968 E6.35144
G1 X82.350 Y126.750 E6.38588
G1 X81.832 Y126.600 E6.40515
G1 X80.814 Y126.235 E6.44380
G1 X80.217 Y125.973 E6.46708
G1 X79.749 Y125.745 E6.48569
G1 X78.995 Y125.328 E6.51646
G1 X66.144 Y117.446 E7.05503
G1 X65.259 Y116.814 E7.09389
G1 X64.429 Y116.111 E7.13275
G1 X63.687 Y115.371 E7.17019
G1 X63.386 Y115.036 E7.18630
G1 X62.825 Y114.343 E7.21813
G1 X62.519 Y113.922 E7.23673
G1 X62.102 Y113.289 E7.26381
G1 X61.571 Y112.340 E7.30266
G1 X61.175 Y111.486 E7.33631
G1 X60.843 Y110.616 E7.36958
G1 X60.628 Y109.936 E7.39505
G1 X60.473 Y109.326 E7.41751
G1 X60.294 Y108.413 E7.45078
G1 X60.169 Y107.388 E7.48765
G1 X60.124 Y106.386 E7.52350
G1 X59.996 Y94.186 E7.95938
G1 X59.996 Y79.186 E8.49527
G1 X60.166 Y60.418 E9.16578
G1 X60.585 Y58.035 E9.25224
G1 X61.724 Y55.968 E9.33656
G1 X62.166 Y56.152 F6000.000
G1 X62.205 Y56.083 E9.33938 F1800.000
G1 X63.982 Y54.555 E9.42310
G1 X66.167 Y53.708 E9.50682
G1 X67.449 Y53.571 E9.55289
G1 X96.805 Y53.199 E10.60174
G1 X99.892 Y53.198 E10.71205
G1 X102.202 Y53.596 E10.79577
G1 X104.246 Y54.741 E10.87949 F1800.000
G1 X105.424 Y55.964 E10.94014
G1 X114.424 Y67.964 E11.47603
G1 X115.597 Y70.424 E11.57340
G1 X118.593 Y82.320 E12.01169
G1 X118.762 Y83.114 E12.04068
G1 X118.878 Y84.009 E12.07291
G1 X119.351 Y94.256 E12.43939
G1 X119.546 Y104.435 E12.80312
G1 X119.531 Y105.140 E12.82831
G1 X119.087 Y113.874 E13.14073
G1 X118.985 Y114.850 E13.17578
G1 X118.865 Y115.506 E13.19963
G1 X118.702 Y116.154 E13.22348
G1 X118.499 Y116.790 E13.24733
G1 X118.255 Y117.411 E13.27118
G1 X117.972 Y118.016 E13.29503
G1 X117.651 Y118.601 E13.31888
G1 X117.292 Y119.164 E13.34273
G1 X116.899 Y119.703 E13.36658
G1 X116.472 Y120.216 E13.39043
G1 X116.012 Y120.701 E13.41428
G1 X115.523 Y121.155 E13.43813
G1 X115.005 Y121.577 E13.46198
G1 X114.462 Y121.964 E13.48583
G1 X113.895 Y122.317 E13.50968
G1 X113.306 Y122.632 E13.53353
G1 X112.699 Y122.908 E13.55738
G1 X112.075 Y123.146 E13.58123
G1 X111.129 Y123.422 E13.61643
G1 X110.164 Y123.607 E13.65155
G1 X87.362 Y126.661 E14.47342
G1 X86.499 Y126.736 E14.50436
G1 X85.618 Y126.752 E14.53585
G1 X85.129 Y126.735 E14.55332
G1 X84.409 Y126.677 E14.57913
G1 X83.382 Y126.520 E14.61626
G1 X82.476 Y126.310 E14.64948
G1 X81.965 Y126.163 E14.66848
G1 X80.986 Y125.812 E14.70564
G1 X80.403 Y125.556 E14.72840
G1 X79.963 Y125.341 E14.74587
G1 X79.233 Y124.939 E14.77564
G1 X66.391 Y117.061 E15.31390
G1 X65.539 Y116.453 E15.35128
G1 X64.741 Y115.777 E15.38865
G1 X64.027 Y115.065 E15.42468
G1 X63.727 Y114.731 E15.44071
G1 X63.185 Y114.062 E15.47147
G1 X62.898 Y113.666 E15.48894
G1 X62.492 Y113.052 E15.51525
G1 X61.982 Y112.139 E15.55261
G1 X61.599 Y111.314 E15.58510
G1 X61.277 Y110.474 E15.61722
G1 X61.068 Y109.812 E15.64202
G1 X60.917 Y109.216 E15.66402
G1 X60.744 Y108.333 E15.69614
G1 X60.624 Y107.347 E15.73166
G1 X60.581 Y106.381 E15.76619
G1 X60.453 Y94.186 E16.20190
G1 X60.453 Y79.186 E16.73779
G1 X60.623 Y60.422 E17.40815
G1 X61.041 Y58.117 E17.49187
G1 X62.136 Y56.204 E17.57062
G1 X62.574 Y56.395 F6000.000
G1 X62.656 Y56.257 E17.57637 F1800.000
G1 X64.416 Y54.832 E17.65725
G1 X67.455 Y54.028 E17.76955
G1 X96.810 Y53.656 E18.81839
G1 X99.892 Y53.656 E18.92850
G1 X102.121 Y54.052 E19.00938
G1 X104.076 Y55.194 E19.09026 F1800.000
G1 X105.058 Y56.238 E19.14146
G1 X114.058 Y68.238 E19.67735
G1 X115.154 Y70.536 E19.76828
G1 X118.150 Y82.432 E20.20657
G1 X118.311 Y83.188 E20.23418
G1 X118.423 Y84.053 E20.26534
G1 X118.895 Y94.271 E20.63077
G1 X119.089 Y104.444 E20.99429
G1 X119.074 Y105.117 E21.01834
G1 X118.630 Y113.851 E21.33076
G1 X118.534 Y114.777 E21.36402
G1 X118.419 Y115.405 E21.38683
G1 X118.264 Y116.024 E21.40963
G1 X118.070 Y116.632 E21.43243
G1 X117.837 Y117.226 E21.45524
G1 X117.567 Y117.804 E21.47804
G1 X117.260 Y118.364 E21.50084
G1 X116.917 Y118.903 E21.52365
G1 X116.541 Y119.418 E21.54645
G1 X116.133 Y119.909 E21.56925
G1 X115.694 Y120.373 E21.59206
G1 X115.227 Y120.807 E21.61486
G1 X114.732 Y121.210 E21.63766
G1 X114.213 Y121.581 E21.66047
G1 X113.671 Y121.918 E21.68327
G1 X113.108 Y122.220 E21.70607
G1 X112.527 Y122.485 E21.72887
G1 X111.931 Y122.712 E21.75168
G1 X111.019 Y122.979 E21.78561
G1 X110.103 Y123.154 E21.81894
G1 X87.302 Y126.208 E22.64081
G1 X86.468 Y126.280 E22.67069
G1 X85.618 Y126.295 E22.70107
G1 X85.161 Y126.279 E22.71740
G1 X84.461 Y126.223 E22.74248
G1 X83.469 Y126.071 E22.77835
G1 X82.602 Y125.871 E22.81014
G1 X81.773 Y125.617 E22.84112
G1 X81.153 Y125.386 E22.86476
G1 X80.243 Y124.972 E22.90045
G1 X79.472 Y124.549 E22.93188
G1 X66.637 Y116.676 E23.46982
G1 X65.820 Y116.092 E23.50571
G1 X65.053 Y115.443 E23.54160
G1 X64.367 Y114.759 E23.57621
G1 X64.068 Y114.427 E23.59216
G1 X63.545 Y113.781 E23.62186
G1 X63.277 Y113.411 E23.63819
G1 X62.883 Y112.814 E23.66373
G1 X62.392 Y111.938 E23.69961
G1 X62.022 Y111.143 E23.73093
G1 X61.712 Y110.333 E23.76192
G1 X61.509 Y109.689 E23.78605
G1 X61.360 Y109.105 E23.80757
G1 X61.194 Y108.254 E23.83856
G1 X61.079 Y107.305 E23.87271
G1 X61.038 Y106.376 E23.90593
G1 X60.910 Y94.186 E24.34147
G1 X60.910 Y79.186 E24.87735
G1 X61.080 Y60.427 E25.54757
G1 X61.497 Y58.201 E25.62845
G1 X62.543 Y56.447 E25.70144
G1 E24.70144 F2400.00000
G92 E0
G1 X65.873 Y98.528 F6000.000
G1 E1.00000 F2400.00000
G1 X65.569 Y98.528 E1.01087 F1800.000
G1 X63.025 Y95.984 E1.13939
G1 X63.025 Y77.387 E1.80379
G1 X63.125 Y77.287 E1.80884
G1 X63.194 Y77.119 E1.81533
G1 X63.194 Y58.686 E2.47386
G1 X65.738 Y56.143 E2.60238
G1 X72.335 Y56.143 E2.83807
G1 X74.879 Y58.686 E2.96658
G1 X74.879 Y67.875 E3.29485
G1 X75.147 Y68.143 E3.30838
G1 X77.946 Y68.143 E3.40840
G1 X78.214 Y67.875 E3.42193
G1 X78.214 Y58.801 E3.74612
G1 X80.758 Y56.257 E3.87463
G1 X87.355 Y56.257 E4.11033
G1 X89.899 Y58.801 E4.23884
G1 X89.899 Y67.989 E4.56711
G1 X90.166 Y68.257 E4.58064
G1 X92.282 Y68.257 E4.65624
G1 X92.550 Y67.989 E4.66977
G1 X92.550 Y58.314 E5.01543
G1 X95.094 Y55.770 E5.14394
G1 X101.691 Y55.770 E5.37964
G1 X104.235 Y58.314 E5.50815
G1 X104.235 Y67.503 E5.83642
G1 X104.502 Y67.770 E5.84995
G1 X110.691 Y67.770 E6.07104
G1 X113.235 Y70.314 E6.19956
G1 X113.235 Y76.911 E6.43525
G1 X112.443 Y77.703 E6.47527
G1 X112.489 Y78.138 E6.49089
G1 X113.100 Y78.544 E6.51709
G1 X113.424 Y78.790 E6.53163
G1 X113.807 Y79.120 E6.54967
G1 X114.424 Y79.754 E6.58130
G1 X114.817 Y80.245 E6.60378
G1 X115.299 Y80.983 E6.63526
G1 X115.628 Y81.623 E6.66097
G1 X115.794 Y82.008 E6.67593
G1 X115.965 Y82.483 E6.69397
G1 X116.187 Y83.328 E6.72519
G1 X116.290 Y83.960 E6.74808
G1 X116.345 Y84.828 E6.77912
G1 X116.325 Y85.469 E6.80206
G1 X116.213 Y86.333 E6.83318
G1 X116.071 Y86.956 E6.85602
G1 X115.794 Y87.787 E6.88728
G1 X115.593 Y88.250 E6.90534
G1 X115.363 Y88.699 E6.92337
G1 X114.949 Y89.362 E6.95127
G1 X114.958 Y89.665 E6.96211
G1 X115.479 Y90.361 E6.99317
G1 X115.807 Y90.901 E7.01576
G1 X116.189 Y91.692 E7.04713
G1 X116.410 Y92.289 E7.06987
G1 X116.568 Y92.854 E7.09084
G1 X116.717 Y93.631 E7.11907
G1 X116.779 Y94.270 E7.14201
G1 X116.779 Y95.137 E7.17300
G1 X116.735 Y95.641 E7.19106
G1 X116.658 Y96.139 E7.20909
G1 X116.550 Y96.633 E7.22713
G1 X116.368 Y97.244 E7.24992
G1 X116.189 Y97.715 E7.26791
G1 X115.848 Y98.428 E7.29615
G1 X115.548 Y98.940 E7.31734
G1 X115.252 Y99.371 E7.33605
G1 X115.261 Y99.675 E7.34690
G1 X115.663 Y100.223 E7.37118
G1 X115.992 Y100.763 E7.39376
G1 X116.374 Y101.554 E7.42514
G1 X116.595 Y102.151 E7.44788
G1 X116.753 Y102.716 E7.46884
G1 X116.902 Y103.492 E7.49708
G1 X116.963 Y104.131 E7.52002
G1 X116.963 Y104.998 E7.55100
G1 X116.919 Y105.502 E7.56907
G1 X116.843 Y106.001 E7.58709
G1 X116.734 Y106.494 E7.60513
G1 X116.552 Y107.105 E7.62792
G1 X116.374 Y107.576 E7.64591
G1 X116.166 Y108.035 E7.66391
G1 X115.929 Y108.479 E7.68189
G1 X115.507 Y109.132 E7.70967
G1 X115.491 Y109.388 E7.71884
G1 X115.778 Y109.946 E7.74125
G1 X116.108 Y110.758 E7.77258
G1 X116.290 Y111.370 E7.79537
G1 X116.399 Y111.863 E7.81341
G1 X116.483 Y112.440 E7.83427
G1 X116.531 Y113.229 E7.86249
G1 X116.510 Y113.871 E7.88543
G1 X116.399 Y114.734 E7.91654
G1 X116.290 Y115.228 E7.93458
G1 X116.150 Y115.713 E7.95262
G1 X115.980 Y116.188 E7.97066
G1 X115.778 Y116.652 E7.98872
G1 X115.548 Y117.101 E8.00675
G1 X115.289 Y117.535 E8.02481
G1 X115.003 Y117.950 E8.04284
G1 X114.690 Y118.347 E8.06089
G1 X114.267 Y118.811 E8.08330
G1 X113.683 Y119.343 E8.11154
G1 X113.206 Y119.709 E8.13303
G1 X112.684 Y120.047 E8.15524
G1 X111.984 Y120.414 E8.18348
G1 X111.423 Y120.649 E8.20519
G1 X110.838 Y120.840 E8.22719
G1 X110.457 Y120.939 E8.24125
G1 X109.962 Y121.037 E8.25929
G1 X109.461 Y121.103 E8.27734
G1 X109.068 Y121.131 E8.29141
G1 X108.348 Y121.133 E8.31712
G1 X107.949 Y121.106 E8.33143
G1 X107.447 Y121.042 E8.34948
G1 X106.952 Y120.946 E8.36752
G1 X106.538 Y120.840 E8.38280
G1 X106.057 Y120.686 E8.40084
G1 X105.627 Y120.518 E8.41732
G1 X104.978 Y120.207 E8.44303
G1 X104.620 Y120.003 E8.45773
G1 X104.197 Y119.728 E8.47577
G1 X103.793 Y119.425 E8.49380
G1 X103.427 Y119.116 E8.51094
G1 X103.091 Y119.115 E8.52292
G1 X102.500 Y119.577 E8.54971
G1 X102.079 Y119.854 E8.56775
G1 X101.640 Y120.104 E8.58578
G1 X101.081 Y120.370 E8.60791
G1 X100.612 Y120.554 E8.62590
G1 X100.133 Y120.708 E8.64388
G1 X99.644 Y120.830 E8.66187
G1 X98.832 Y120.962 E8.69127
G1 X98.252 Y121.004 E8.71204
G1 X97.746 Y121.005 E8.73011
G1 X97.243 Y120.973 E8.74812
G1 X96.742 Y120.910 E8.76617
G1 X96.149 Y120.791 E8.78778
G1 X95.391 Y120.567 E8.81601
G1 X94.810 Y120.338 E8.83831
G1 X94.295 Y120.090 E8.85872
G1 X93.978 Y120.162 E8.87034
G1 X93.712 Y120.500 E8.88568
G1 X93.301 Y120.961 E8.90777
G1 X92.672 Y121.573 E8.93914
G1 X92.098 Y122.048 E8.96573
G1 X91.602 Y122.407 E8.98763
G1 X91.068 Y122.745 E9.01017
G1 X90.307 Y123.155 E9.04108
G1 X89.607 Y123.462 E9.06838
G1 X88.921 Y123.706 E9.09439
G1 X88.292 Y123.883 E9.11775
G1 X87.707 Y124.009 E9.13913
G1 X86.974 Y124.119 E9.16561
G1 X86.250 Y124.175 E9.19152
G1 X85.461 Y124.177 E9.21971
G1 X84.756 Y124.128 E9.24497
G1 X84.115 Y124.041 E9.26809
G1 X83.405 Y123.896 E9.29398
G1 X82.660 Y123.686 E9.32163
G1 X81.995 Y123.445 E9.34689
G1 X81.390 Y123.180 E9.37050
G1 X80.741 Y122.842 E9.39662
G1 X79.993 Y122.374 E9.42817
G1 X79.461 Y121.982 E9.45176
G1 X78.920 Y121.527 E9.47702
G1 X78.471 Y121.095 E9.49927
G1 X77.976 Y120.553 E9.52552
G1 X77.489 Y119.932 E9.55369
G1 X77.149 Y119.432 E9.57532
G1 X76.701 Y118.661 E9.60716
G1 X76.450 Y118.146 E9.62763
G1 X76.182 Y117.497 E9.65272
G1 X75.881 Y116.559 E9.68792
G1 X75.571 Y116.371 E9.70084
G1 X75.223 Y116.443 E9.71354
G1 X74.597 Y116.533 E9.73614
G1 X73.874 Y116.588 E9.76205
G1 X73.085 Y116.591 E9.79024
G1 X72.298 Y116.533 E9.81844
G1 X71.598 Y116.430 E9.84369
G1 X70.881 Y116.273 E9.86992
G1 X70.283 Y116.100 E9.89216
G1 X69.542 Y115.828 E9.92036
G1 X68.897 Y115.538 E9.94563
G1 X68.233 Y115.180 E9.97257
G1 X67.616 Y114.787 E9.99870
G1 X67.020 Y114.344 E10.02524
G1 X66.457 Y113.860 E10.05178
G1 X66.094 Y113.509 E10.06980
G1 X65.660 Y113.035 E10.09276
G1 X65.161 Y112.412 E10.12128
G1 X64.772 Y111.845 E10.14584
G1 X64.394 Y111.206 E10.17238
G1 X64.012 Y110.421 E10.20357
G1 X63.740 Y109.731 E10.23005
G1 X63.519 Y109.022 E10.25659
G1 X63.367 Y108.396 E10.27963
G1 X63.263 Y107.812 E10.30080
G1 X63.187 Y107.134 E10.32518
G1 X63.153 Y106.346 E10.35336
G1 X63.180 Y105.557 E10.38154
G1 X63.263 Y104.798 E10.40885
G1 X63.396 Y104.082 E10.43486
G1 X63.557 Y103.448 E10.45822
G1 X63.806 Y102.699 E10.48641
G1 X64.073 Y102.050 E10.51150
G1 X64.325 Y101.535 E10.53197
G1 X64.717 Y100.850 E10.56016
G1 X65.112 Y100.264 E10.58544
G1 X65.508 Y99.752 E10.60856
G1 X66.114 Y99.070 E10.64114
G1 X65.897 Y98.583 E10.66021
G1 X67.027 Y98.071 F6000.000
G1 X65.758 Y98.071 E10.70554 F1800.000
G1 X63.482 Y95.795 E10.82053
G1 X63.482 Y77.576 E11.47141
G1 X63.582 Y77.477 E11.47645
G1 X63.651 Y77.309 E11.48295
G1 X63.651 Y58.876 E12.14148
G1 X65.927 Y56.600 E12.25646
G1 X72.146 Y56.600 E12.47863
G1 X74.422 Y58.876 E12.59361
G1 X74.422 Y68.332 E12.93145
G1 X74.690 Y68.600 E12.94498
G1 X78.403 Y68.600 E13.07766
G1 X78.671 Y68.332 E13.09119
G1 X78.671 Y58.990 E13.42494
G1 X80.947 Y56.714 E13.53993
G1 X87.166 Y56.714 E13.76209
G1 X89.441 Y58.990 E13.87708
G1 X89.441 Y68.446 E14.21492
G1 X89.709 Y68.714 E14.22845
G1 X92.739 Y68.714 E14.33671
G1 X93.007 Y68.446 E14.35023
G1 X93.007 Y58.503 E14.70546
G1 X95.283 Y56.227 E14.82044
G1 X101.502 Y56.227 E15.04261
G1 X103.778 Y58.503 E15.15760
G1 X103.778 Y67.960 E15.49543
G1 X104.045 Y68.227 E15.50896
G1 X110.502 Y68.227 E15.73962
G1 X112.778 Y70.503 E15.85461
G1 X112.778 Y76.722 E16.07677
G1 X111.692 Y77.807 E16.13160
G1 X111.757 Y78.260 E16.14793
G1 X112.417 Y78.635 E16.17508
G1 X112.756 Y78.859 E16.18957
G1 X113.136 Y79.145 E16.20656
G1 X113.496 Y79.455 E16.22354
G1 X113.836 Y79.787 E16.24052
G1 X114.380 Y80.425 E16.27047
G1 X114.760 Y80.975 E16.29435
G1 X114.961 Y81.315 E16.30846
G1 X115.179 Y81.737 E16.32544
G1 X115.368 Y82.174 E16.34243
G1 X115.529 Y82.621 E16.35942
G1 X115.740 Y83.423 E16.38903
G1 X115.842 Y84.081 E16.41285
G1 X115.877 Y84.485 E16.42734
G1 X115.888 Y84.960 E16.44428
G1 X115.835 Y85.783 E16.47375
G1 X115.763 Y86.252 E16.49073
G1 X115.677 Y86.649 E16.50521
G1 X115.491 Y87.286 E16.52894
G1 X115.179 Y88.057 E16.55866
G1 X114.961 Y88.480 E16.57564
G1 X114.760 Y88.820 E16.58975
G1 X114.369 Y89.391 E16.61448
G1 X114.389 Y89.712 E16.62597
G1 X114.893 Y90.321 E16.65421
G1 X115.350 Y91.021 E16.68407
G1 X115.655 Y91.615 E16.70794
G1 X115.813 Y91.980 E16.72214
G1 X115.974 Y92.427 E16.73913
G1 X116.185 Y93.229 E16.76875
G1 X116.280 Y93.818 E16.79007
G1 X116.333 Y94.641 E16.81954
G1 X116.314 Y95.239 E16.84090
G1 X116.265 Y95.711 E16.85785
G1 X116.185 Y96.178 E16.87479
G1 X116.075 Y96.639 E16.89173
G1 X115.936 Y97.093 E16.90867
G1 X115.655 Y97.792 E16.93560
G1 X115.406 Y98.286 E16.95536
G1 X115.100 Y98.790 E16.97641
G1 X114.679 Y99.360 E17.00174
G1 X114.680 Y99.681 E17.01323
G1 X115.077 Y100.182 E17.03607
G1 X115.534 Y100.882 E17.06593
G1 X115.808 Y101.405 E17.08703
G1 X116.121 Y102.176 E17.11674
G1 X116.291 Y102.746 E17.13798
G1 X116.449 Y103.558 E17.16754
G1 X116.507 Y104.153 E17.18891
G1 X116.507 Y104.976 E17.21832
G1 X116.465 Y105.451 E17.23533
G1 X116.369 Y106.039 E17.25664
G1 X116.180 Y106.769 E17.28357
G1 X115.998 Y107.288 E17.30324
